X:879
T:Redican's mother
R:Slip Jig
O:Ireland
S:Richard Darsie
Z:Transcription, chords:Mike Long
M:9/8
L:1/8
K:D
"D"FAd FAd "(A)"AFD|"D"FAd FAd "G"B2A|\
"D"FAd FAd "(A)"AFD|"D"FEF DFA "G"B2A:|
|:"D"f2f f/2g/2af "G"edB|"D"Aff f/2g/2af "A"gfe|\
"D"f2f f/2g/2af "G"edB|"D/A"AFE DFA "G"B2A:|
